X: 28284
T: Mrs. Muir Of Caldwall's
R: strathspey
M: 4/4
K: Dmajor
d|AFA>B A>B {AB}dF|AFA>B A3 B|AFAB A>B {AB}dF|E<ETF>A TB2B:|
g|f>de>c Td>A FD|f>de>c Td3 g|f>de>c Td>A FD|E<ETF>A B2Bg|
fdec Td>A FD|f<de<c d3 g|f<ae<g Td>A FD|E<ETF>A TB2B||

